Catalina-dark/actions/22/im-google-talk.svg

<svg xmlns="http://www.w3.org/2000/svg" viewBox="0 0 22 22">
  <defs id="defs3051">
    <style type="text/css" id="current-color-scheme">
      .ColorScheme-Text {
        color:#f2f2f2
      }
      </style>
  </defs>
 <path 
     style="fill:currentColor;fill-opacity:1;stroke:none"      
	 class="ColorScheme-Text"
        d="M 11 3 C 7.3317073 3 4.3652344 5.9664729 4.3652344 9.6347656 C 4.3652344 13.303058 7.3317073 16.267578 11 16.267578 L 11.390625 16.267578 L 11.390625 19 C 15.215015 17.204878 17.634766 13.146961 17.634766 9.6347656 C 17.634766 5.9664729 14.668293 3 11 3 z M 8.2675781 7.6835938 L 10.609375 7.6835938 L 10.609375 10.023438 L 9.8300781 11.585938 L 8.6582031 11.585938 L 9.4394531 10.023438 L 8.2675781 10.023438 L 8.2675781 7.6835938 z M 11.390625 7.6835938 L 13.732422 7.6835938 L 13.732422 10.023438 L 12.951172 11.585938 L 11.78125 11.585938 L 12.560547 10.023438 L 11.390625 10.023438 L 11.390625 7.6835938 z "
     />
</svg>

<svg viewBox="0 0 22 22" xmlns="http://www.w3.org/2000/svg">
<defs>
<style id="current-color-scheme" type="text/css">.ColorScheme-Text {
        color:#dedede
      }</style>
</defs>
<path class="ColorScheme-Text" d="m11 3c-3.6683 0-6.6348 2.9665-6.6348 6.6348 0 3.6683 2.9665 6.6328 6.6348 6.6328h0.39062v2.7324c3.8244-1.7951 6.2441-5.853 6.2441-9.3652 0-3.6683-2.9665-6.6348-6.6348-6.6348zm-2.7324 4.6836h2.3418v2.3398l-0.7793 1.5625h-1.1719l0.78125-1.5625h-1.1719v-2.3398zm3.123 0h2.3418v2.3398l-0.78125 1.5625h-1.1699l0.7793-1.5625h-1.1699v-2.3398z" fill="currentColor"/>
</svg>
